X: 27110
T: Miss Mairead Hussey's
R: jig
M: 6/8
K: Dmajor
A3 AFD|ABd BAF|EBd BAF|EBd BAF|
A3 AFD|ABd BAF|EBd BAF|1 AFD D3:|2 AFD D2 f||
M:9/8
|:afe dBA A2 f|afe dBA B2 f|afe dBA A2 F|1 E3 EFA B2 f:|2 E3 EFA B3||

